packages/icons/svg/Outline/message-square.svg

<svg fill="none" height="24" viewBox="0 0 24 24" width="24" xmlns="http://www.w3.org/2000/svg"><path clip-rule="evenodd" d="m6.99997 9.99994c0-.552.448-1 1-1s1 .448 1 1c0 .55196-.448.99996-1 .99996s-1-.448-1-.99996zm5.00003-1c-.552 0-1 .448-1 1 0 .55196.448.99996 1 .99996s1-.448 1-.99996c0-.552-.448-1-1-1zm3.9999 0c-.552 0-1 .448-1 1 0 .55196.448.99996 1 .99996s1-.448 1-.99996c0-.552-.448-1-1-1zm4.0001 6.00016c0 .551-.449 1-1 1h-10.44603c-.543 0-1.077.148-1.544.428l-3.01 1.806v-13.23403c0-.551.449-1 1-1h14.00003c.551 0 1 .449 1 1zm-1-13.0001h-14c-1.654 0-3 1.346-3 3v15c0 .36.194.693.507.87.153.087.323.13.493.13.178 0 .356-.047.515-.143l4.524-2.714c.156-.094.334-.143.515-.143h10.446c1.654 0 3-1.346 3-3v-10c0-1.654-1.346-3-3-3z" fill="#6b7280" fill-rule="evenodd"/></svg>

<svg width="24" height="24" viewBox="0 0 24 24" fill="none" xmlns="http://www.w3.org/2000/svg">
<g id="Icon/Outline/message-square">
<path id="Mask" fill-rule="evenodd" clip-rule="evenodd" d="M7 10C7 9.448 7.448 9 8 9C8.552 9 9 9.448 9 10C9 10.552 8.552 11 8 11C7.448 11 7 10.552 7 10ZM12 9C11.448 9 11 9.448 11 10C11 10.552 11.448 11 12 11C12.552 11 13 10.552 13 10C13 9.448 12.552 9 12 9ZM16 9C15.448 9 15 9.448 15 10C15 10.552 15.448 11 16 11C16.552 11 17 10.552 17 10C17 9.448 16.552 9 16 9ZM20 15C20 15.551 19.551 16 19 16H8.554C8.011 16 7.477 16.148 7.01 16.428L4 18.234V5C4 4.449 4.449 4 5 4H19C19.551 4 20 4.449 20 5V15ZM19 2H5C3.346 2 2 3.346 2 5V20C2 20.36 2.194 20.693 2.507 20.87C2.66 20.957 2.83 21 3 21C3.178 21 3.356 20.953 3.515 20.857L8.039 18.143C8.195 18.049 8.373 18 8.554 18H19C20.654 18 22 16.654 22 15V5C22 3.346 20.654 2 19 2Z" fill="#000000"/>
</g>
</svg>
